svgs/sharp-regular/fireplace.svg

<svg xmlns="http://www.w3.org/2000/svg" viewBox="0 0 640 512"><!--! Font Awesome Pro 6.6.0 by @fontawesome - https://fontawesome.com License - https://fontawesome.com/license (Commercial License) Copyright 2024 Fonticons, Inc. --><path d="M592 48l0 32L48 80l0-32 544 0zM48 0L0 0 0 48 0 80l0 48 32 0 0 360 0 24 24 0 80 0 24 0 0-24 0-120c0-88.4 71.6-160 160-160s160 71.6 160 160l0 120 0 24 24 0 80 0 24 0 0-24 0-360 32 0 0-48 0-32 0-48L592 0 48 0zM80 464l0-336 480 0 0 336-32 0 0-96c0-114.9-93.1-208-208-208s-208 93.1-208 208l0 96-32 0zM297.5 265.6c-29.9 18.7-89.6 71.7-89.6 134.4c0 61.9 50.1 112 112 112s112-50.1 112-112c0-18.7-13.4-67.2-67.2-112l-22.4 22.4-44.8-44.8zm67.2 168.1c0 24.7-20.1 44.8-44.8 44.8s-44.8-20.1-44.8-44.8c0-33.6 44.8-67.2 44.8-67.2s44.8 33.6 44.8 67.2z"/></svg>

<svg xmlns="http://www.w3.org/2000/svg" viewBox="0 0 640 512"><!--! Font Awesome Pro 6.4.2 by @fontawesome - https://fontawesome.com License - https://fontawesome.com/license (Commercial License) Copyright 2023 Fonticons, Inc. --><path d="M592 48V80H48V48H592zM48 0H0V48 80v48H32V488v24H56h80 24V488 368c0-88.4 71.6-160 160-160s160 71.6 160 160V488v24h24 80 24V488 128h32V80 48 0H592 48zM560 128V464H528V368c0-114.9-93.1-208-208-208s-208 93.1-208 208v96H80V128H560zM296.6 256.1s-93.1 75.4-93.1 139.6s52.1 116.4 116.4 116.4s116.4-52.1 116.4-116.4c0-53.6-69.8-116.4-69.8-116.4s-10.1 9.1-22.6 23.2c-23.5-27.3-47.2-46.5-47.2-46.5zm24 209.3c-32.7 0-58.9-21.1-58.9-56.7c0-17.5 10.9-32.7 32.7-59.6c2.9 3.6 45.1 57.5 45.1 57.5L365.7 376c2.2 2.9 3.6 5.8 5.1 8.7c13.1 24 7.3 54.5-14.5 69.8c-10.9 7.3-22.5 10.9-35.6 10.9z"/></svg>
